X: 7
T: I saw three ships
C: Arr. Edward Huws-Jones
M: 3/4
K: D
L: 1/4
Q: 1/4=200
z | D3 | E3 | F3 | G3 | A3 | B3 |
w: I saw three ships come sail-
c3 | A3 | D3 | E3 | F3 | G3 |
w: ing in, On Christ- mas day,
A3 | B3 | c3 | d2 z | D3 | E3 |
w: On Christ- mas day; I saw
F3 | G3 | A3 | B3 | c3 | A3 | D3 |
w: three ships come sail- ing in, On
E3 | F3 | G3 | A3 | B3 | c3  | c2|]
w: Christ- mas day in the morn- ing.

%% transpose 2
%% header
